X:29
T:Lichtmann 29
C:G. F. Handel
M:3/8
L:1/8
Q:"Allegretto" 1/8=69
K:A
!mf!(A"_lively"E)A|A (A3/G//A//)|(BE)B|B (B3/A//B//)|(c3/4d//) ed|(cA)B|
(c3/4d//) ed|(c/B/) AB|(c/B/) AB|B2 (B//c//d/)|(c/B/) AB|B2!p!B,|
(C3/4D//) ED|(C/B,/) A,B,|(C/B,/) A,B,|B,2 (B,//C//D/)|(C/B,/) A,B,|B,3||
!mf!E (E3/D//E//)|(FEF)|D (D3/C//D//)|(EDE)|C (C3/B,//C//)|(DCD)|
(B,ED)|C3|D3|E3|F3|(cA)c|(dB)d|(ec)e|
(dB)d|(cB)c|(BA)B|B2 (B//c//d/)|(cB)c|(BA)B|(AE)c|
A2 !p!(A,//B,//C/)|(B,A,)B,|B,2 (B,//C//D/)|(CB,)C|(B,A,)B,|(A,E)C|A,3|]

